X: 1
T: Angeline the Baker
C: Trad
R: American Old-Timey
M: 4/4
L: 1/8
K: D
Z: ABC transcription by Verge Roller
r: 32
|: dB | "D" A2 B2  d3 A | "Bm" B2 d4 dB | "D" A2 B2 dB  A2 | "Bm" B6 dB |
"D" A2 B2  d3 e | "D" f2 e2 d3 e | "D" f2 e2 "G" d2 B2 | "D" A6 :|
|: fg | "D" a2 f2 e2 de | "D" f2 e2 d2 fg | "D" a2 f2 e2 d2 | "Bm" B6 fg |
"D" a2 f2 e2 de | "D" f2 e2 d3 e | "D" f2 e2 "G" d2 B2 | "D" A6 :|
